static/app-icons/light-theme/CloudAutoscale.svg

<svg xmlns="http://www.w3.org/2000/svg" viewBox="0 0 32 32"><defs><linearGradient id="linear-gradient" x1="-3490" y1="3842" x2="-3490" y2="3827" gradientTransform="translate(3500.5 -3807.5)" gradientUnits="userSpaceOnUse"><stop offset=".5"/><stop offset="1" stop-opacity="0"/></linearGradient><linearGradient id="linear-gradient-2" y1="32" x2="32" gradientUnits="userSpaceOnUse"><stop offset=".1" stop-color="#08bdba"/><stop offset=".9" stop-color="#0f62fe"/></linearGradient><style>.cls-1{fill:#fff}</style><mask id="mask" x="0" y="0" width="32" height="32" maskUnits="userSpaceOnUse"><path class="cls-1" d="M22 28H6a2 2 0 01-2-2V10a2 2 0 012-2h16a2 2 0 012 2v16a2 2 0 01-2 2zM6 26h16V10H6z"/><path class="cls-1" d="M28 22h-2v-2h2V4H12v2h-2V4a2.006 2.006 0 012-2h16a2.006 2.006 0 012 2v16a2.006 2.006 0 01-2 2z"/><path transform="rotate(90 10.5 27)" fill="url(#linear-gradient)" d="M8.5 19.5h4v15h-4z"/><path d="M3 20h4v9.078H3z"/></mask></defs><g id="Layer_2" data-name="Layer 2"><g id="Light_theme_icons" data-name="Light theme icons"><g mask="url(#mask)"><path id="Color" fill="url(#linear-gradient-2)" d="M0 0h32v32H0z"/></g><path fill="#001d6c" d="M4.451 29.012l11.548-11.6v4.595L18 22v-8h-8v1.992l4.585.007L3.037 27.6l1.414 1.412z"/></g></g></svg>

<svg xmlns="http://www.w3.org/2000/svg" xmlns:xlink="http://www.w3.org/1999/xlink" viewBox="0 0 32 32"><defs><style>.cls-1{fill:#fff;}.cls-2{fill:url(#linear-gradient);}.cls-3{mask:url(#mask);}.cls-4{fill:url(#linear-gradient-2);}.cls-5{fill:#001d6c;}</style><linearGradient id="linear-gradient" x1="-3490" y1="3842" x2="-3490" y2="3827" gradientTransform="translate(3500.5 -3807.5)" gradientUnits="userSpaceOnUse"><stop offset="0.5"/><stop offset="1" stop-opacity="0"/></linearGradient><mask id="mask" x="0" y="0" width="32" height="32" maskUnits="userSpaceOnUse"><path class="cls-1" d="M22,28H6a2,2,0,0,1-2-2V10A2,2,0,0,1,6,8H22a2,2,0,0,1,2,2V26A2,2,0,0,1,22,28ZM6,26H22l0-16L6,10Z"/><path class="cls-1" d="M28,22H26l0-2H28L28,4,12,4l0,2H10V4a2.006,2.006,0,0,1,2-2H28a2.006,2.006,0,0,1,2,2V20A2.006,2.006,0,0,1,28,22Z"/><rect class="cls-2" x="8.5" y="19.5" width="4" height="15" transform="translate(37.5 16.5) rotate(90)"/><rect x="3" y="20" width="4" height="9.078"/></mask><linearGradient id="linear-gradient-2" y1="32" x2="32" gradientUnits="userSpaceOnUse"><stop offset="0.1" stop-color="#08bdba"/><stop offset="0.9" stop-color="#0f62fe"/></linearGradient></defs><g id="Layer_2" data-name="Layer 2"><g id="Light_theme_icons" data-name="Light theme icons"><g class="cls-3"><rect id="Color" class="cls-4" width="32" height="32"/></g><polygon class="cls-5" points="4.451 29.012 15.999 17.412 15.999 22.007 18 22 18 14 10 14 10 15.992 14.585 15.999 3.037 27.6 4.451 29.012"/></g></g></svg>
